X: 26171
T: McKendrick's
R: reel
M: 4/4
K: Eminor
E2BE BcEB|BEBG FGAF|EBBE Bced|cBAc BAGF|
EBBE BcEB|BEBG FGAF|EFGA (3Bcd (3efg|1 f3f edBG:|2 f3f edBA|[M:2/4]BGFG||
|:B2eB gBeB|Beeg fede|B2eB gBeB|fgaf gfed|
B2eB gBeB|Beeg fede|fBfg fedB|=cd (3efg fedc:|[M:2/4]BGFG|

